X: 011
M: C|
L: 1/16
K: Amix
|: g2 "^:S:"| (agfe) c2a2 e2a2c2a2 | B2g2-g2d2 B2G2G2g2 |\
[1 (agfe) c2a2 e2a2c2a2 | B2a2-a2e2 c2A2A2g2 :|\
[2 (agf2) (gfe2) (fed2) (edc2) | B2a2-a2e2 c2A2A2 |]
V: 2 clef=bass middle=d
z2 |\
a4 a4 a4 a4 | g4 g4 g4 g4 |\
a4 a4 a4 a4 | e4 e4 A4 A2 :|\
|: z2 | a4
a4 a4 a4 | g4 g4 g4 g4 |\
[1 a4 a4 a4 a4 | e4 e4 A4 A4 :|\
[2 a4 a4 a4 a4 | e4 e4 A4 A2 |]

